X:1
T: Miss Ann Mackay's Favourite
T: I'll mak ye fain to follow me
C:R. Mackintosh
R:Jig
Q: 180
K:C
M:6/8
L:1/8
|:C|E1/2F1/2GG c2e|dDD D2C|E1/2F1/2GG cdc|BAB cGE|
FdF EcE|dDD D2C|E1/2F1/2GG c2G|ECC C2:|
|:f|ega gec|f2e d2c|ega gec|gea gec|fga gec|
|1f2e d2c|E1/2F1/2GG c2G|ECC C2:|2fef dgf|ece fdf|ecc c2||
